Gruvbox-Plus-Dark/actions/16/call-start.svg

<svg xmlns="http://www.w3.org/2000/svg" width="16" height="16" viewBox="0 0 16 16">
 <defs>
  <style id="current-color-scheme" type="text/css">
   .ColorScheme-Text { color:#ebdbb2; } .ColorScheme-Highlight { color:#458588; }
  </style>
 </defs>
 <path style="fill:currentColor" class="ColorScheme-Text" d="M 9.9980469 1.0039062 C 9.4440369 1.0039062 8.9980469 1.4498963 8.9980469 2.0039062 L 8.9980469 4.0039062 C 8.9980469 4.5579162 9.4440369 5.0039062 9.9980469 5.0039062 L 10.466797 5.0039062 C 9.5628969 7.5608063 7.5549469 9.5687762 4.9980469 10.472656 L 4.9980469 10.003906 C 4.9980469 9.4499063 4.5520469 9.0039062 3.9980469 9.0039062 L 1.9980469 9.0039062 C 1.4440469 9.0039062 0.99804688 9.4499063 0.99804688 10.003906 L 0.99804688 13.003906 C 0.99804688 13.557906 1.4219669 14.003906 1.9667969 14.003906 L 1.9980469 14.003906 C 8.6148469 14.003906 13.980947 8.6479563 13.998047 2.0351562 L 13.998047 1.9726562 C 13.998047 1.4308963 13.563327 1.0039062 13.029297 1.0039062 L 9.9980469 1.0039062 z"/>
</svg>

<svg width="16" height="16" version="1.1" viewBox="0 0 16 16" xmlns="http://www.w3.org/2000/svg">
  <defs>
    <style type="text/css">.ColorScheme-Text { color:#ebdbb2; } .ColorScheme-Highlight { color:#458588; }</style>
  </defs>
  <path class="ColorScheme-Text" d="m9.998 0.9957c-0.554 0-1 0.446-1 1v2c0 0.554 0.446 1 1 1h0.4688c-0.9039 2.557-2.912 4.565-5.469 5.469v-0.4688c0-0.554-0.446-1-1-1h-2c-0.554 0-1 0.446-1 1v3c0 0.554 0.4239 1.004 0.9688 1.004 6.033 0 12.03-4 12.03-11.97v-0.0625c0-0.5418-0.4347-0.9688-0.9688-0.9688h-3.031z" fill="currentColor"/>
</svg>
